**kern	**kern
*staff2	*staff1
=1-	=1-
*clefF4	*clefG2
*k[f#]	*k[f#]
*e:	*e:
*M5/4	*M5/4
4r	4r
2E\	1r
4.F#\	.
8A\	.
=2	=2
[2G\	1r
8G\L]	.
8F#\J	.
8A\L	.
8d\J	.
[4c\	4r
=3	=3
8c\L]	1r
8G\	.
8c\	.
8G\J	.
4B\	.
4G\	.
4E\	4r
=4	=4
8d\L	1r
8A\	.
8d\	.
8A\J	.
4c\	.
4A\	.
4F#\	4r
=5	=5
8e\L	4r
8B\	.
8e\	2b\
8B\J	.
4d\	.
4B\	4.cc\
[4G\	.
.	8ee\
=6	=6
!!linebreak:original
4G\]	[2dd\
8E\L	.
8D\J	.
4d\	8dd\L]
.	8cc\J
4c\	8ee\L
.	8aa\J
8B\L	[4gg\
8A\J	.
=7	=7
4c\	8gg\L]
.	8dd\
4e\	8gg\
.	8dd\J
8d\	4ff#\
4A\	.
.	4dd\
8B\L	.
8c\	4b\
8d\J	.
=8	=8
4c\	8aa\L
.	8ee\
4f#\	8aa\
.	8ee\J
8e\	4gg\
4B\	.
.	4ee\
8c\L	.
8d\	4cc\
8e\J	.
=9	=9
4d\	8bb\L
.	8ff#\J
8b\L	4.cc\
8a\J	.
4g\	.
.	8ff#\
4f#\	8dd/L
.	8a/
4r	8cc/
.	8g/J
=10	=10
!!pagebreak:original
4r	4.b\
2EE/	.
.	8ee\
.	4.dd\
4.FF#/	.
.	8ee\L
.	8ff#\
8AA/	8ee\J
=11	=11
[2GG/	4b\
.	8cc\L
.	8dd\J
8GG/L]	4ee\
8FF#/J	.
8AA/L	4.ff#\
8D/J	.
[4C/	.
.	8gg\
=12	=12
8C/L]	4aa\
8GG/	.
8C/	8gg\L
8GG/J	8ee\J
4BB/	4.ff#\
4GG/	.
.	8aa\L
4EE/	8ccc\
.	8bb\J
=13	=13
8D/L	[2aa\
8AA/	.
8D/	.
8AA/J	.
4C/	8aa\L]
.	8bb\J
4AA/	8gg\L
.	8ff#\
4FF#/	8ee\
.	8dd\J
=14	=14
!!linebreak:original
*M4/4	*M4/4
8r	2cc\
8E\L	.
8F#\	.
8G\J	.
4F#\	8r
.	8ccc\L
[4d\	8bb\
.	8ccc\J
=15	=15
*M5/4	*M5/4
8d\L]	4.ee\
8c\	.
8G\	.
8E\J	8dd\L
4.A\	8cc\
.	8ee\J
.	8gg\L
8G\L	8ddd\J
8F#\	[4ccc\
8E\J	.
=16	=16
8D\L	4ccc\]
8B\J	.
[2f#\	8bb\L
.	8ff#\
.	8dd\
.	8b\J
8f#\L]	2a/
8g\	.
8f#\	.
[8e\J	.
=17	=17
8e\L]	4r
8d\J	.
4.c\	2cc\
8B\	.
4.A\	4.dd\
8G\	8ff#\
=18	=18
!!linebreak:original
8F#\L	2ee\
8E\	.
8D\J	.
4.C/	.
.	8ee\L
.	8dd\J
4BB/	8ff#\L
.	8bb\J
4r	[4aa\
=19	=19
4dd\	8aa\L]
.	8ee\
8e\L	8aa\
8f#\	8ee\J
8d\	4gg\
8e\J	.
8cc\	4ee\
4b\	.
.	4cc\
[8a\	.
=20	=20
8a\]	8bb\L
4g\	8ff#\
.	8bb\
4f#\	8ff#\J
.	4aa\
4e\	.
.	4ff#\
4d\	.
.	4dd\
8e\	.
=21	=21
8B\L	[2ddd\
8A\	.
8G\	.
8D\J	.
2c\	8ddd\L]
.	8ccc\J
.	8bb\L
.	8aa\
[4d\	8bb\
.	8aa\J
=22	=22
!!pagebreak:original
2d\]	8ddd\L
.	8ccc\
.	8bb\
.	8aa\
8c\	8bb\
4d\	8ff#\J
.	4ccc\
8e\	.
[4f#\	8bb\L
.	8aa\J
=23	=23
8f#\L]	4gg\
8g\	.
8a\	4.dd\
8b\J	.
4e\	.
.	8cc\
4a\	4b\
8g\L	8ff#\L
8a\J	8ee\J
=24	=24
8b\L	4dd\
8a\	.
8dd\	8ff#\L
8cc\J	8aa\
4ee\	8gg\
.	8ccc\J
8g\L	8aa\
8cc\J	4gg\
[4ee\	.
.	8ccc\
=25	=25
4ee\]	4bb\
8dd\L	4.aa\
8ee\J	.
4ff#\	.
.	8bb\
8ee\L	2r
8cc\	.
8a\	.
8b\J	.
=26	=26
!!linebreak:original
4cc\	4r
8dd\L	4ff#\
8cc\J	.
4ee\	4gg\
16b\LL	4gg\
16cc\	.
16b\	.
16cc\J	.
8a\	16bb\LK
.	8ff#\
[8cc\J	.
.	16gg\Jk
=27	=27
8cc\L]	16bb\LL
.	16aa\
16dd\L	16bb\
16ee\J	16ccc\
8aa\	16ccc\
.	16ddd\J
16bb\L	8ddd\J
16ccc\JJ	.
4ccc\	4eee-\
4eee\	4cccc\
4r	4r
=28	=28
2.r	8r
.	8e-/
.	4a-/
.	4g/
4r	4r
4BB/	4b\
=29	=29
!!linebreak:original
[1EE	4.a/
.	8g/L
.	8d/J
.	4c/
.	8B/
4EE/]	[4d/
=30	=30
[1EE	8d/L]
.	8c/
.	8f#/
.	8e/J
.	4.d/
.	8e/L
4EE/]	8f#/
.	8g/J
=31	=31
[1EE	4d/
.	4e/
.	8c/
.	4d/
.	4c/
4EE/]	.
.	[8B/
=32	=32
[1EE	8B/]
.	4f#/
.	4e/
.	4d/
.	4c/
4EE/_	.
.	[8B/
=33	=33
!!pagebreak:original
1EE_	8B/L]
.	8A/
.	8c/
.	8e/
.	8b/
.	8c/J
.	4f#/
4EE/]	4a/
=34	=34
[1EE	[1g
4EE/]	4g/]
==	==
*-	*-
